X:1
T:24 Arie Antiche
T:O Cessate di piagarmi (Del Opera Il Pompeo)
T:O cessate di piagarmi
T:Alessandro Scarlatti (1659-1725) Alessandro Parisotti (1853-1913)
T:(24 Arie Antiche) Arietta
T:Low voices Del opera Il Pompeo Nicolò Minato (1630-1698)
T:OpensCore (CC0)
T:OpensCore (CC0)
T:OpensCore (CC0)
C:Alessandro Scarlatti (1660-1725)
Z:OpensCore (CC0)
%%score 1 { ( 2 3 ) | 4 }
L:1/8
Q:1/4=70
M:6/8
K:G
V:1 treble nm="Voice"
V:2 treble nm="Piano"
V:3 treble 
V:4 bass 
V:1
"^Andante con moto" z6 |: %1
w: |
!p!"^La prima volta \n \n = 80\nLa seconda volta   = 50"!<(! B2 B B2 B!<)! | c2 c !>!c2 B | %3
w: O ces- sa- te|di pia- gar- mi,|
!>(! c2 B ^D2 E | G2 F E2 z | c2 B ^D2!>)! E | G2 F E3 |!p![Q:1/4=74]!<(! F2 F F2 F!<)! | %8
w: o la- scia- te-|mi mo- rir,|o las- cia- te-|mi mo- rir.|Lu- c'in- gra- te,|
[Q:1/4=76] F2{/A} G F2 F |"^rinf.   string.   poco"[Q:1/4=78]"^cresc." G2 G[Q:1/4=80] G2 G | %10
w: di- spie- ta- te,|lu- c'in- gra- te,|
"^a   poco"[Q:1/4=82] G2 G[Q:1/4=84]{/B} A2 G | A2 A A2 A | !>!B2!<(! A A2[Q:1/4=70] ^A!<)! | %13
w: di- spie- ta- te,|più del ge- loe|piú del mar- mi|
!p!!>(! B2 c[Q:1/4=66] (dG) A!>)! |"^smorz."[Q:1/4=64]!>(! B2[Q:1/4=62] A!>)![Q:1/4=56] G3 | %15
w: fred- dee sor- * dea'|miei mar- tir,|
!pp![Q:1/4=62] B2 c (dG) A | %16
w: fred- dee sor _ dea'|
[Q:1/4=60] !>!B2-"^rit.   -          -          -          -"[Q:1/4=52] B/ A/[Q:1/4=44] G3[Q:1/4=40] | %17
w: miei _ mar- tir.-|
!mf!"^dolente ed appssionato"[Q:1/4=70] B2 B B2 B | c2 c !>!c2 B |[Q:1/4=66]!>(! c2 B ^D2 E!>)! | %20
w: O ces- sa- te|di pia- gar- mi,|o la- scia- te-|
 G2[Q:1/4=64] F E3 | !>!c2"^con  dolore  e  rit.  assai"[Q:1/4=62] B ^D2 E | %22
w: mi mo- rir,|o las- cia- te-|
[Q:1/4=56] G2[Q:1/4=50] F E2 z :| %23
w: mi mo- rir.|
V:2
 z"^agitato" [GB]2 z [FB]2 |: z [GB]2 z [FB]2 | z [Gc]2 z ([^DAc][B,B]) | z ([Ec][B,B]) z (AG) | %4
!<(! z ^D2 z ([G,E]!<)![^G,=D]) |!>(! z ([F,^D][B,E]) z ([DA]!>)![EG]) | z ^D2 z E2 | %7
 z ([^CEF]F,) z ([B,=DF]F,) | z ([^A,EF]F,) z ([B,F]F,) | z ([D=FG]G,) z ([CEG]G,) | %10
 z ([B,DG]G,) z ([CG]G,) | z ([EGA]A,) z ([DGA]A,) | z (!>![^CGB][A,A]) z"_dim." ([DA][=C^A]) | %13
!p! z ([B,GB][CF]) z ([DG][EGA]) | z ([DFB][CFA]) z ([EG]B,) | z G2- G3 | z ^F2 z ([B,G][A,^D]) | %17
 z ([GB]B,) z ([FB]B,) | z ([Gc]C) z ([^DAc][B,B]) | z ([Ec][B,B]) z (AG) | %20
 z ([B,^DG][A,F]) z ([^CE]G,) |!<(! z ([F,=C^D][B,E]) z ([C^DA]!<)![^CG^A]) | %22
 z ([^DGB][A,D]) [G,E]3 :| %23
V:3
 z2 B,- B,2 B,- |: B,2 B,- B,2 B,- | B,2 C x3 | x4 B,2 | x (B,A,) x3 | x4 B,2 | x (B,A,) x (G,B,) | %7
 x6 | x6 | x6 | x6 | x6 | x6 | x6 | x6 | x =FE DB,C | %16
 x (D"^rit.   -          -          -          -"C) x3 | x6 | x6 | x4 B,2 | x6 | x6 | x6 :| %23
V:4
!p!"^sempre legato" E,3 ^D,3 |: E,3 ^D,3 | E,3 F,3 | G,3 F,2 E, | B,,3 C,2 B,, | %5
 A,,2 G,, F,,2 E,, | B,,3 E,3 | ^A,,3 B,,3 | ^C,3 D,3 | %9
"^cresc.  rinf.   string.   poco" B,,3 =C,3 |"^a   poco" =F,3 E,3 | ^C,3 D,3 | E,3 F,3 | %13
 (G,2 A,) (B,B,,C,) | D,3 E,3 |!pp! (D,2 C, B,, E,2) | E,3!<(! (G,,2!>(! B,,)!<)!!>)! | %17
!mf! E,3 ^D,3 |!<(! E,3 F,3!<)! |!>(! G,3 F,2 E,!>)! | B,,3 !>!^A,,3 |!p! =A,,2 G,, F,,2 E,, | %22
"^rit.  assai" B,,3"_La seconda volta\n  molto ritenuto" E,,3 :| %23

